X:593
T: "Liederkraenzchen"
N: Z1273
O: Europa, Mitteleuropa, Deutschland, Boehmen
R: Natur und Welt
M: 6/4
L: 1/8
K: Bb
F2 | B2c2d2c4B2 | A4z6
A2 | d2e2f2f2=e2g2 | f4z6
F2 | B2c2d2c4B2 | A4z6
A2 | d2e2f2f2=e2g2 | f4z6
fe | d2e2f2d2f2ed | c2c2BcA2F2
FA | B2f2edc4A2 | B4z6

